X: 21901
T: Kissing Is The Best Of A'
R: reel
M: 4/4
K: Gmajor
c|:(BG)GB (BG)Gc|BGGB gdec|(BG)GB (GB)Gc|A=FFA c2 BA:|
(B/c/d) df (gd)ec|(B/c/d) df g2 gd|(B/c/d) df (gd)ec|A=FFA c2 BA|
(B/c/d) df gded|(B/c/d) df g2 dg|egdg cgBg|A=FFA c2 BA||

